!! 00000] TT[00
!! NN
!!!OTL: Xiu he bao
!!!ARE: Asia, China,ÿHebei, Jin cha ji)
!! Ethnic Group: Han
!! IV, 69
!!!SCT: C0380
!!!YEM: Copyright 1995, estate of Helmut Schaffrath.
**kern
*ICvox
*Ivox
*M2/4
*k[]
*C:
{8dd
8dd
8cc
8ee
=1
4dd
8cc
8a
=2
8gg
16ee
16dd
8dd
16cc
16a
=3
2g}
=4
{8a
4dd
8ee
=5
8dd
16cc
16a
8.g
16a
=6
16cc
16a
16cc
16dd
8a
16g
16e
=7
2d}
==
!!!AGN: Xiaodiao, Xiuhebao diao. Chang lishi chuanshuo
!! wenig arrangiert
!!!ONB: ESAC (Essen Associative Code) Database: CHINA
!!!AMT: simple duple
!!!AIN: vox
!!!EED: Helmut Schaffrath
!!!EEV: 1.0
*-
